src/lib/packages/icons/src/assets/filled/home-roof-shield.svg

<svg width="24" height="24" viewBox="0 0 24 24" fill="none" xmlns="http://www.w3.org/2000/svg">
<path d="M21.477 9.08502L14.0649 2.98907C12.8679 2.00707 11.133 2.00607 9.93598 2.98907L2.52399 9.08404C2.20499 9.34704 2.15796 9.81907 2.42096 10.1401C2.68596 10.4601 3.15799 10.5051 3.47699 10.2431L4.49994 9.40106V18.0001C4.49994 20.2901 5.70994 21.5001 7.99994 21.5001H15.9999C18.2899 21.5001 19.4999 20.2901 19.4999 18.0001V9.40204L20.5229 10.2441C20.6629 10.3591 20.8319 10.4151 20.9999 10.4151C21.2159 10.4151 21.4309 10.322 21.5789 10.142C21.8429 9.82003 21.796 9.34802 21.477 9.08502ZM15.4999 13.056C15.4999 15.723 13.3119 17.0561 11.9999 17.5001C10.6879 17.0561 8.49994 15.722 8.49994 13.056C8.49994 12.581 8.49994 11.288 8.49994 10.834C10.2499 10.332 11.1249 9.94503 12.0069 9.50104C12.8749 9.94503 13.7499 10.3321 15.4999 10.7761C15.4999 11.2531 15.4999 12.565 15.4999 13.056Z" fill="currentColor"/>
</svg>

<svg xmlns="http://www.w3.org/2000/svg" width="24" height="24" fill="none"><path fill="currentColor" d="m21.477 9.085-7.412-6.096a3.26 3.26 0 0 0-4.129 0L2.524 9.084a.751.751 0 0 0 .953 1.16L4.5 9.4V18c0 2.29 1.21 3.5 3.5 3.5h8c2.29 0 3.5-1.21 3.5-3.5V9.401l1.023.842a.749.749 0 0 0 1.056-.102.751.751 0 0 0-.102-1.057ZM15.5 13.056c0 2.667-2.188 4-3.5 4.444-1.312-.444-3.5-1.778-3.5-4.444v-2.222c1.75-.502 2.625-.889 3.507-1.333.868.444 1.743.831 3.493 1.275v2.28Z"/></svg>
